svg/ruby.svg

<svg viewBox="0 0 20 20" xmlns="http://www.w3.org/2000/svg">
<rect width="100%" height="100%" fill="#BD0012"/>
<path d="M6.63437 15.6819L13.1969 11.4725L16.5625 17.0507L6.63437 15.7007V15.6819ZM17.5 5.2944V5.38815C17.5 5.81003 17.4531 6.24128 17.4344 6.66315V7.49753C17.4344 8.06003 17.3687 8.62253 17.3406 9.1944V10.0382L17.2562 11.6975V12.56C17.2562 12.8507 17.2094 13.4225 17.1906 13.8538C17.1906 14.135 17.1906 14.4163 17.1438 14.6882C17.1438 15.1382 17.0969 15.5788 17.0781 16.0194C17.0594 16.46 17.0781 16.6475 17.0312 16.9569L16.9844 16.91L16.4406 16.0757L13.5812 11.4819C13.4594 11.2757 13.4594 11.2757 13.5812 11.0694L16.7125 6.3819C16.9469 6.03503 17.1719 5.68815 17.4062 5.35065L17.5 5.2944ZM3.60625 9.6069L4.75 7.89128C4.91269 7.66377 5.10148 7.4561 5.3125 7.27253L7.32813 5.39753C7.59404 5.15315 7.88649 4.93931 8.2 4.76003L10.3188 3.5694C10.3611 3.5487 10.4076 3.53794 10.4547 3.53794C10.5018 3.53794 10.5483 3.5487 10.5906 3.5694C10.8906 3.69128 11.2 3.7944 11.5281 3.9069H11.5937V3.9819C11.3125 4.52565 11.0406 5.0694 10.7687 5.61315C10.7257 5.70241 10.6651 5.78211 10.5906 5.84753L7.9375 8.24753C7.77813 8.39753 7.6375 8.5569 7.47812 8.69753C7.38874 8.77898 7.29137 8.85122 7.1875 8.91315C6.30625 9.39128 5.40625 9.85065 4.50625 10.2632C4.47089 10.289 4.4282 10.303 4.38438 10.303C4.34055 10.303 4.29786 10.289 4.2625 10.2632L3.60625 9.6069ZM7.62812 9.48503L12.8125 11.1538L6.25 15.3725C6.25 15.2975 7.5625 9.67253 7.62812 9.48503V9.48503ZM16.8906 5.2944L13.2063 10.8257L11.3313 6.2319C11.3781 6.2319 16.2063 5.36003 16.8906 5.2944ZM7.70313 9.0444L10.9375 6.16628L12.8125 10.7225L7.70313 9.0444ZM5.89375 15.5225L2.5 15.6069L4.27188 11.3694L5.89375 15.5225ZM5.94063 14.5382L4.49688 10.7882L7.1875 9.4194C7.12187 9.7194 7.05625 10.0007 6.98125 10.2819L6.78438 11.135C6.70938 11.4257 6.64375 11.7069 6.56875 11.9975L6.37188 12.8413C6.29688 13.1225 6.23125 13.4132 6.16562 13.6944C6.1 13.9757 6.03437 14.2569 5.95 14.5382H5.94063ZM11.1906 5.79128C11.1825 5.75105 11.1825 5.70962 11.1906 5.6694C11.4531 5.12565 11.725 4.5819 11.9969 4.04753C12.0531 3.93503 12.0906 3.91628 12.2031 3.95378L13.4031 4.26315L16.0562 4.96628H16.1875C16.1406 5.05065 11.7719 5.72565 11.1906 5.79128V5.79128ZM13.075 3.71003L16.7219 2.90378L17.5 4.92878L13.075 3.71003ZM3.15625 16.1225C3.18018 16.1009 3.20847 16.0847 3.2392 16.075C3.26993 16.0653 3.30239 16.0623 3.33438 16.0663H4.01875L5.66875 16.0194C5.95107 16.0148 6.23329 16.0336 6.5125 16.0757L7.45 16.1882L8.58437 16.3382L9.70937 16.4975L10.7687 16.6475L11.7719 16.7882L13.1781 16.9756L14.2937 17.1257H14.3969H14.3406L13.5719 17.0507L12.7 16.9756L11.5937 16.8725L10.7312 16.7882L9.6625 16.6944L8.8 16.61L7.72188 16.5444L6.85938 16.4694L5.8 16.3663L4.92813 16.2913L3.99062 16.2069L3.15625 16.1225ZM2.5 14.4257C2.79063 12.9819 3.08125 11.5382 3.38125 10.0757L3.70937 10.4225L3.98125 10.6944C4.08437 10.8069 4.10313 10.8632 4.0375 11.0038L3.35313 12.5882L2.62188 14.2944L2.5 14.435V14.4257ZM11.2094 3.26003C11.6312 3.17565 14.6687 2.7819 14.7531 2.80065H14.6781L13.9938 2.96003L12.1563 3.4194C11.9123 3.48295 11.6538 3.45976 11.425 3.35378L11.2094 3.26003Z" fill="white"/>
</svg>

<svg xmlns="http://www.w3.org/2000/svg" viewBox="0 0 20 20">
  <rect width="100%" height="100%" fill="#BD0012"/>
  <path fill="#fff" d="m6.63 15.68 6.57-4.2 3.36 5.57-9.93-1.35v-.02ZM17.5 5.3v.1c0 .42-.05.85-.07 1.27v.84c0 .56-.06 1.12-.09 1.7v.84l-.08 1.66v.86c0 .3-.05.86-.07 1.3 0 .28 0 .56-.05.83 0 .45-.04.89-.06 1.33-.02.44 0 .63-.05.94l-.05-.05-.54-.83-2.86-4.6c-.12-.2-.12-.2 0-.41l3.13-4.69c.24-.34.46-.7.7-1.03l.09-.06ZM3.6 9.61l1.15-1.72c.16-.23.35-.43.56-.62L7.33 5.4c.26-.25.56-.46.87-.64l2.12-1.2a.3.3 0 0 1 .27 0c.3.13.61.23.94.35h.06v.07l-.82 1.63a.74.74 0 0 1-.18.24l-2.65 2.4-.46.45a1.8 1.8 0 0 1-.3.21 44.84 44.84 0 0 1-2.8 1.4.2.2 0 0 1-.12-.05l-.65-.65Zm4.03-.12 5.18 1.66-6.56 4.22c0-.07 1.31-5.7 1.38-5.88Zm9.26-4.2-3.68 5.54-1.88-4.6c.05 0 4.88-.87 5.56-.94ZM7.7 9.04l3.24-2.87 1.87 4.55-5.1-1.68Zm-1.8 6.48-3.4.09 1.77-4.24 1.62 4.15Zm.04-.98L4.5 10.79l2.69-1.37-.2.86-.2.86-.22.86-.2.84-.2.85-.22.85Zm5.25-8.75a.3.3 0 0 1 0-.12l.8-1.62c.06-.11.1-.13.21-.1l1.2.31 2.66.7h.13c-.05.1-4.42.77-5 .83Zm1.88-2.08 3.65-.8.78 2.02-4.43-1.22ZM3.16 16.12a.22.22 0 0 1 .17-.05h.69l1.65-.05c.28 0 .56.01.84.06l.94.1 1.13.16 1.13.16 1.06.15 1 .14 1.4.19 1.12.15h.1-.05l-.77-.08-.87-.07-1.1-.1-.87-.1-1.07-.09-.86-.08-1.08-.07-.86-.07-1.06-.1-.87-.08-.94-.08-.83-.09Zm-.66-1.7.88-4.34.33.34.27.27c.1.12.12.17.06.31l-.69 1.59-.73 1.7-.12.15v-.01Zm8.7-11.16c.43-.08 3.47-.48 3.55-.46h-.07l-.69.16-1.83.46c-.25.06-.5.04-.73-.07l-.22-.09Z"/>
</svg>
